X: 20282
T: WOLFF'S DANISH WALTZ
C:
%R: waltz
B: Elias Howe "The Musician's Companion" 1843 p.28 #2
S: http://imslp.org/wiki/The_Musician's_Companion_(Howe,_Elias)
Z: 2015 John Chambers <jc:trillian.mit.edu>
M: 3/8
L: 1/16
K: D
% - - - - - - - - - - - - - - - - - - - - - - - - -
|:\
(A2B2c2) | (d2A2)f2 | (e2A2)(g2 | f2)(edcB) |\
(A2B2c2) | (d2A2)f2 | (e2c2){^g}a2 | d4z2 :]\
(e2c2)A2 | (f2d2)A2 | (g2e2)A2 | ^g2a2A2 |
{f}e2(^de)(de) | {f}e2(^de)(de) | {a}g2(fe)(dc) | {e}d4z2 H::\
(f2d2)B2 | (^A2F2)A2 | ({c}B^ABcde) | (.f2.f2.f2) |\
.f2(edcB) | .g2(fedc) | (B^A^GFGA) | {c}B4 "^D.C."z2 |]
% - - - - - - - - - - - - - - - - - - - - - - - - -
